la/ethernet-solid.svg

<svg xmlns="http://www.w3.org/2000/svg" viewBox="0 0 32 32" height="1em" width="1em">
  <path d="M5 5v22h22V5Zm2 2h18v18H7Zm7 4v3h-3v7h2v-2h2v2h2v-2h2v2h2v-7h-3v-3Z"/>
</svg>

<svg xmlns="http://www.w3.org/2000/svg" viewBox="0 0 32 32" height="1em" width="1em">
  <path d="M 5 5 L 5 27 L 27 27 L 27 5 Z M 7 7 L 25 7 L 25 25 L 7 25 Z M 14 11 L 14 14 L 11 14 L 11 21 L 13 21 L 13 19 L 15 19 L 15 21 L 17 21 L 17 19 L 19 19 L 19 21 L 21 21 L 21 14 L 18 14 L 18 11 Z"/>
</svg>
